X:0998
M:2/4
L:1/8
Q:1/4=80
K:D
e|cAGE|FAdf |BGEe     |{d}c2 z (d/c/)|BAGF|Eeeg    |f>dc>e|d2 z:|
z|dBBd|A>BGF|GBge     |{d}c2 z (d/c/)|BAGF|Eee z/g/|f>dBc |d3  :|

